X:1
T:Title
%%score ( 1 2 ) ( 3 4 ) ( 5 6 )
L:1/8
Q:1/4=120
M:2/4
K:G
V:1 treble nm="Picked Bass, Soprano Voice"
V:2 treble 
V:3 bass nm="Picked Bass, Tenor Voice"
V:4 bass 
V:5 bass nm="Picked Bass, Baritone Voice"
V:6 bass 
V:1
 G2 .B2 | .B2 Bc | z2 g2 | e4 | d2 .B2 | B2 z2 | Bc .d2 | .d2 d2 | z2 B2 | G2 .A2 | A2 e2 | %11
 e2 .d2 | z2 d2- | d2 z2 | z/ .A/.A c2 | c2 B2- | B2 z2 | G2 .B2 | B2 Bc | d2 g2 | e4 | d2 .B2 | %22
 B2 G2 | Bc .d2 | .d2 d2- | d2 z2 |] %26
V:2
 x4 | x4 | d4 | z2 de | x4 | z2 G2- | G2 z2 | x4 | x4 | x4 | x4 | x4 | d2 z2 | B2 A2 | x4 | x4 | %16
 x4 | x4 | x4 | x4 | z2 de | x4 | x4 | x4 | x4 | x4 |] %26
V:3
 D,2 .G,2 | G,2 B,A, | G,2[K:treble] C2 | E2 z2[K:bass] | z2 B,2 | G,2 E,2 | G,4 | E,F, G,2 | %8
 z2[K:treble] B,2 | D2 z2 | A,2 C2 | E2 D[K:bass]B, | G,2 B,2 | D2 C2 | .A,A, C2 | E2 D2 | z4 | %17
 D,2 .G,2 | G,2 B,A, | G,2[K:treble] C2 | E4 | G,2[K:bass] B,2 | G,2 E,2 | G,2 z2 | E,F, G,2- | %25
 G,2 z2 |] %26
V:4
 x4 | x4 | x2[K:treble] x2 | z/4 z/16 D3/16-D3/2 D[K:bass]B, | G,4 | x4 | z2 D,2 | x4 | %8
 x2[K:treble] x2 | z2 C2- | C2 z2 | x3[K:bass] x | x4 | x4 | x4 | x4 | x4 | x4 | x4 | %19
 x2[K:treble] x2 | z2 DB, | x2[K:bass] x2 | x4 | z2 D,2- | D,2 z2 | x4 |] %26
V:5
 G,2 .D,2 | D,2 E,F, | G,2 G,2 | F,2 G,F, | E,2 .D,2 | D,2 G,2 | D,2 B,,C, | D,2 G,2 | z2 E,2 | %9
 G,2 F,2 | D,2 .E,2 | E,4 | D,2 E,2 | G,2 F,2 | .D,D, .E,2 | E,2 D,2- | D,2 z2 | G,2 .D,2 | %18
 D,2 E,F, | .G,2 G,2 | F,2 G,F, | E,2 .D,2 | D,2 G,2 | D,4 | D,4 | z4 |] %26
V:6
 x4 | x4 | x4 | x4 | x4 | x4 | x4 | x4 | x4 | x4 | x4 | z2 .D,2 | x4 | x4 | x4 | x4 | x4 | x4 | %18
 x4 | x4 | x4 | x4 | x4 | z2 B,,-[B,,C,] | z2 [G,,G,]2- | [G,,G,]2 z2 |] %26

